!!!!SEGMENT: pl-cz--i-24--001_gostowski--mazurek.krn
!!!cenid: 18xx:831
!!!COM: Gostowski
!!!COM-rismID: pe30096425
!!!CDT: ~1800-~1899
!!!CNT:
!!!OTL: Mazurek
!!!PDT:
!!!AGN: Secular; Mazurka
!!!SMS-siglum: PL-CZ
!!!SMS-shelfmark: I-24
!!!SMS-shelfwork: 001 W
!!!SMS-variant:
!!!SMS-altvar:
!!!NIFC-rismSourceID: 300000364
!!!NIFC-islandoraID: pl-cz:31488
!!!URL-pdf-islandora: https://repozytorium.nifc.pl/islandora/object/pl-cz%3A31488/datastream/PDF/view
!!!URL-scan:
!!!ONB-nifc:
!!!AIN: 2 clars 1 cor 2 empty 1 flt 1 timpa 2 violn
!!!key:
**kern	**dynam	**kern	**dynam	**kern	**dynam	**kern	**dynam	**kern	**dynam	**kern	**dynam	**kern	**dynam	**kern	**dynam	**kern	**dynam
*group3	*	*group3	*	*group3	*	*group2	*	*group2	*	*group2	*	*group1	*	*group1	*	*group1	*
*part9	*part9	*part8	*part8	*part7	*part7	*part6	*part6	*part5	*part5	*part4	*part4	*part3	*part3	*part2	*part2	*part1	*part1
*staff9	*	*staff8	*	*staff7	*	*staff6	*	*staff5	*	*staff4	*	*staff3	*	*staff2	*	*staff1	*
*Iempty	*	*Ivioln	*	*Ivioln	*	*Itimpa	*	*Iempty	*	*Icor	*	*Iclars	*	*Iclars	*	*Iflt	*
*I"Baſso Violone	*	*I"Violino IIdo	*	*I"Violino Imo.	*	*I"Tympano in A. E.	*	*I"Trombka in A.	*	*I"Corno 1mo et 2do in A.	*	*I"Clarinetto 2do in C.	*	*I"Clarinetto 1mo in C.	*	*I"Flauto.	*
*I'[B. Vlne]	*	*I'[Vl 2]	*	*I'[Vl 1]	*	*I'[Timp. in A.E.]	*	*I'[Tr in A]	*	*I'[Cor 1 et 2 in A]	*	*I'[Cl 2 in C]	*	*I'[Cl 1 in C]	*	*I'[Fl]	*
*clefF4	*	*clefG2	*	*clefG2	*	*clefF4	*	*clefG2	*	*clefG2	*	*clefG2	*	*clefG2	*	*clefG2	*
*	*	*	*	*	*	*	*	*ITrd2c3	*	*ITrd2c3	*	*	*	*	*	*	*
*k[f#c#g#]	*	*k[f#c#g#]	*	*k[f#c#g#]	*	*k[f#c#g#]	*	*k[f#c#g#]	*	*k[f#c#g#]	*	*k[f#c#g#]	*	*k[f#c#g#]	*	*k[f#c#g#]	*
*A:	*	*A:	*	*A:	*	*A:	*	*A:	*	*A:	*	*A:	*	*A:	*	*A:	*
*M3/8	*	*M3/8	*	*M3/8	*	*M3/8	*	*M3/8	*	*M3/8	*	*M3/8	*	*M3/8	*	*M3/8	*
=1	=1	=1	=1	=1	=1	=1	=1	=1	=1	=1	=1	=1	=1	=1	=1	=1	=1
*	*	*	*	*	*	*	*	*	*	*^	*	*	*	*	*	*	*
!	!LO:DY:rj:t=p.	!	!LO:DY:rj:t=p.	!	!LO:DY:rj:t=p.	!LO:TX:a:t=8.	!	!LO:TX:a:t=4.	!	!	!	!LO:DY:rj:t=p.	!	!LO:DY:rj:t=p.	!	!LO:DY:rj:t=p.	!	!LO:DY:rj:t=p.
8AA/	p	8A/L	p	16.cc#\LL	p	4.r	.	4.r	.	8r	8ryy	p	16.a\LL	p	16.cc#\LL	p	16.ccc#\LL	p
.	.	.	.	32dd\JJk	.	.	.	.	.	.	.	.	32b\JJk	.	32dd\JJk	.	32ddd\JJk	.
8r	.	8c#/ 8e	.	8.ee\L	.	.	.	.	.	8a/L	8c#\L	.	8.cc#\L	.	8.ee\L	.	8.eee\L	.
8r	.	8c#/J 8e	.	.	.	.	.	.	.	8a/J	8c#\J	.	.	.	.	.	.	.
.	.	.	.	16ff#\Jk	.	.	.	.	.	.	.	.	16dd\Jk	.	16ff#\Jk	.	16fff#\Jk	.
=2	=2	=2	=2	=2	=2	=2	=2	=2	=2	=2	=2	=2	=2	=2	=2	=2	=2	=2
*	*	*rep	*	*	*	*	*	*	*	*	*	*	*	*	*	*	*	*
8AA/	.	8A/L	.	16.ee\LL	.	4.r	.	4.r	.	8r	8ryy	.	16.cc#\LL	.	16.ee\LL	.	16.eee\LL	.
.	.	.	.	32dd#X\JJk	.	.	.	.	.	.	.	.	32b#X\JJk	.	32dd#X\JJk	.	32ddd#X\JJk	.
8r	.	8c#/ 8e	.	8ee\L	.	.	.	.	.	8a/L	8c#\L	.	8cc#\L	.	8ee\L	.	8eee\L	.
8r	.	8c#/J 8e	.	8aa^>\J	.	.	.	.	.	8a/J	8c#\J	.	8cc#\J	.	8aa^>\J	.	8aaa^>\J	.
*	*	*Xrep	*	*	*	*	*	*	*	*	*	*	*	*	*	*	*	*
=3	=3	=3	=3	=3	=3	=3	=3	=3	=3	=3	=3	=3	=3	=3	=3	=3	=3	=3
*	*	*rep	*	*	*	*	*	*	*	*rep	*rep	*	*	*	*	*	*	*
8AA/	.	8A/L	.	16.cc#\LL	.	4.r	.	4.r	.	8r	8ryy	.	16.a\LL	.	16.cc#\LL	.	16.ccc#\LL	.
.	.	.	.	32dd\JJk	.	.	.	.	.	.	.	.	32b\JJk	.	32dd\JJk	.	32ddd\JJk	.
8r	.	8c#/ 8e	.	8.ee\L	.	.	.	.	.	8a/L	8c#\L	.	8.cc#\L	.	8.ee\L	.	8.eee\L	.
8r	.	8c#/J 8e	.	.	.	.	.	.	.	8a/J	8c#\J	.	.	.	.	.	.	.
.	.	.	.	16ff#\Jk	.	.	.	.	.	.	.	.	16dd\Jk	.	16ff#\Jk	.	16fff#\Jk	.
*	*	*Xrep	*	*	*	*	*	*	*	*Xrep	*Xrep	*	*	*	*	*	*	*
=4	=4	=4	=4	=4	=4	=4	=4	=4	=4	=4	=4	=4	=4	=4	=4	=4	=4	=4
*	*	*rep	*	*	*	*	*	*	*	*rep	*rep	*	*	*	*	*	*	*
8AA/	.	8A/L	.	16.ee\LL	.	4.r	.	4.r	.	8r	8ryy	.	16.cc#\LL	.	16.ee\LL	.	16.eee\LL	.
.	.	.	.	32dd#X\JJk	.	.	.	.	.	.	.	.	32b#X\JJk	.	32dd#X\JJk	.	32ddd#X\JJk	.
8r	.	8c#/ 8e	.	8ee\L	.	.	.	.	.	8a/L	8c#\L	.	8cc#\L	.	8ee\L	.	8eee\L	.
8r	.	8c#/J 8e	.	8cc#^>\J	.	.	.	.	.	8a/J	8c#\J	.	8a\J	.	8cc#^>\J	.	8ccc#\J	.
*	*	*Xrep	*	*	*	*	*	*	*	*Xrep	*Xrep	*	*	*	*	*	*	*
=5||	=5	=5||	=5	=5	=5	=5	=5	=5	=5	=5	=5	=5	=5	=5	=5	=5	=5	=5
!	!	!	!	!	!	!	!	!LO:TX:a:t=4.	!	!	!	!	!	!	!	!	!	!
8E\	.	16d/LL	.	16.ee\LL	.	4.r	.	4.r	.	8r	8ryy	.	16.cc#\LL	.	16.ee\LL	.	16.eee\LL	.
.	.	16e/	.	.	.	.	.	.	.	.	.	.	.	.	.	.	.	.
.	.	.	.	32dd\JJk	.	.	.	.	.	.	.	.	32b\JJk	.	32dd\JJk	.	32ddd\JJk	.
8r	.	16d/	.	4b\	.	.	.	.	.	8a/L	8e\L	.	4g#\	.	4b\	.	4bb\	.
.	.	16e/	.	.	.	.	.	.	.	.	.	.	.	.	.	.	.	.
8r	.	16d/	.	.	.	.	.	.	.	8a/J	8e\J	.	.	.	.	.	.	.
.	.	16e/JJ	.	.	.	.	.	.	.	.	.	.	.	.	.	.	.	.
=6	=6	=6	=6	=6	=6	=6	=6	=6	=6	=6	=6	=6	=6	=6	=6	=6	=6	=6
*	*	*tremolo	*	*	*	*	*	*	*	*	*	*	*	*	*	*	*	*
8AA/	.	16c#/LL	.	16.dd\LL	.	4.r	.	4.r	.	8r	8ryy	.	16.b/LL	.	16.dd\LL	.	16.ddd\LL	.
.	.	16e/	.	.	.	.	.	.	.	.	.	.	.	.	.	.	.	.
.	.	.	.	32cc#\JJk	.	.	.	.	.	.	.	.	32a/JJk	.	32cc#\JJk	.	32ccc#\JJk	.
8r	.	16c#/	.	4a\	.	.	.	.	.	8a/L	8c#\L	.	4e/	.	4a/	.	4aa\	.
.	.	16e/	.	.	.	.	.	.	.	.	.	.	.	.	.	.	.	.
8r	.	16c#/	.	.	.	.	.	.	.	8a/J	8c#\J	.	.	.	.	.	.	.
.	.	16e/JJ	.	.	.	.	.	.	.	.	.	.	.	.	.	.	.	.
=7	=7	=7	=7	=7	=7	=7	=7	=7	=7	=7	=7	=7	=7	=7	=7	=7	=7	=7
*	*	*	*	*	*	*	*	*	*	*	*	*	*tremolo	*	*	*	*	*
8E\	.	16d/LL	.	16.cc#\LL	.	4.r	.	4.r	.	8r	8ryy	.	16d/LL	.	16.cc#\LL	.	16.ccc#\LL	.
.	.	16e/	.	.	.	.	.	.	.	.	.	.	16e/	.	.	.	.	.
.	.	.	.	32b\JJk	.	.	.	.	.	.	.	.	.	.	32b\JJk	.	32bb\JJk	.
8r	.	16d/	.	8.e/L	.	.	.	.	.	8a/L	8e\L	.	16d/	.	8.e/L	.	8.ee\L	.
.	.	16e/	.	.	.	.	.	.	.	.	.	.	16e/	.	.	.	.	.
8r	.	16d/	.	.	.	.	.	.	.	8a/J	8e\J	.	16d/	.	.	.	.	.
.	.	16e/JJ	.	16g#/Jk	.	.	.	.	.	.	.	.	16e/JJ	.	16g#/Jk	.	16gg#\Jk	.
*	*	*	*	*	*	*	*	*	*	*	*	*	*Xtremolo	*	*	*	*	*
!	!	!	!	!	!	!	!	!	!	!	!	!	!	!	!	!	!LO:LB:g=original	!
=8	=8	=8	=8	=8	=8	=8	=8	=8	=8	=8	=8	=8	=8	=8	=8	=8	=8	=8
8AA/	.	16c#/LL	.	16.a\LL	.	4.r	.	4.r	.	8r	8ryy	.	16.e/LL	.	16.a\LL	.	16.aa\LL	.
.	.	16e/	.	.	.	.	.	.	.	.	.	.	.	.	.	.	.	.
.	.	.	.	32cc#\JJk	.	.	.	.	.	.	.	.	32a/JJk	.	32cc#\JJk	.	32ccc#\JJk	.
8r	.	16c#/	.	8ee\L	.	.	.	.	.	8a/L	8c#\L	.	8cc#\L	.	8ee\L	.	8.eee\L	.
.	.	16e/	.	.	.	.	.	.	.	.	.	.	.	.	.	.	.	.
8r	.	16c#/	.	8aa^>\J	.	.	.	.	.	8a/J	8c#\J	.	8cc#\J	.	8aa^>\J	.	.	.
.	.	16e/JJ	.	.	.	.	.	.	.	.	.	.	.	.	.	.	16ggg#\Jk	.
*	*	*Xtremolo	*	*	*	*	*	*	*	*	*	*	*	*	*	*	*	*
!	!	!	!	!LO:LB:g=original	!	!	!	!	!	!	!	!	!LO:LB:g=original	!	!	!	!	!
=9	=9	=9	=9	=9	=9	=9	=9	=9	=9	=9	=9	=9	=9	=9	=9	=9	=9	=9
!	!LO:DY:rj:t=f.	!	!LO:DY:rj:t=f..	!	!LO:DY:rj	!	!LO:DY:rj:t=f..	!	!LO:DY:rj:t=f..	!	!	!LO:DY:rj:t=f..	!	!LO:DY:rj:t=f..	!	!LO:DY:rj:t=f.	!	!LO:DY:rj:t=f.
8E\L	f	16d/LL	f	16.ee\LL	ff	8GG#t>/L	f	8E/L	f	8b/L	8e\L	f	16.cc#\LL	f	16.ee\LL	f	16.eee\LL	f
.	.	16e/	.	.	.	.	.	.	.	.	.	.	.	.	.	.	.	.
.	.	.	.	32dd\JJk	.	.	.	.	.	.	.	.	32b\JJk	.	32dd\JJk	.	32ddd\JJk	.
8G#\	.	16B/	.	4b\	.	8GG#/J	.	8e/	.	8b/	8e\	.	4g#/	.	4b\	.	4bb\	.
.	.	16e/	.	.	.	.	.	.	.	.	.	.	.	.	.	.	.	.
8E\J	.	16d/	.	.	.	8r	.	8E/J	.	8b/J	8e\J	.	.	.	.	.	.	.
.	.	16e/JJ	.	.	.	.	.	.	.	.	.	.	.	.	.	.	.	.
!	!	!	!	!	!	!	!	!	!	!LO:LB:g=original	!LO:LB:g=original	!	!	!	!LO:DY:rj	!	!	!
=10	=10	=10	=10	=10	=10	=10	=10	=10	=10	=10	=10	=10	=10	=10	=10	=10	=10	=10
8AA/L	.	16c#/LL	.	16.dd\LL	.	8C#/L	.	8A/L	.	8a/L	8c#\L	.	16.b/LL	.	16.dd\LL	.	16.ddd\LL	.
.	.	16e/	.	.	.	.	.	.	.	.	.	.	.	.	.	.	.	.
.	.	.	.	32cc#\JJk	.	.	.	.	.	.	.	.	32a/JJk	.	32cc#\JJk	.	32ccc#\JJk	.
8C#/	.	16A/	.	4a\	.	8C#/J	.	8c#/	.	8a/	8c#\	.	4e/	.	4a\	.	4aa\	.
.	.	16e/	.	.	.	.	.	.	.	.	.	.	.	.	.	.	.	.
8AA/J	.	16c#/	.	.	.	8r	.	8A/J	.	8a/J	8c#\J	.	.	.	.	.	.	.
.	.	16e/JJ	.	.	.	.	.	.	.	.	.	.	.	.	.	.	.	.
!LO:LB:g=original	!	!LO:LB:g=original	!	!	!	!	!	!	!	!	!	!	!	!	!	!	!	!
=11	=11	=11	=11	=11	=11	=11	=11	=11	=11	=11	=11	=11	=11	=11	=11	=11	=11	=11
*	*	*	*	*	*	*	*	*	*	*	*	*	*tremolo	*	*	*	*	*
8E\L	.	16d/LL	.	16.cc#\LL	.	8GG#t>/L	.	8E/L	.	8b/L	8e\L	.	16d/LL	.	16.cc#\LL	.	16.ccc#\LL	.
.	.	16e/	.	.	.	.	.	.	.	.	.	.	16e/	.	.	.	.	.
.	.	.	.	32b\JJk	.	.	.	.	.	.	.	.	.	.	32b\JJk	.	32bb\JJk	.
8G#\	.	16B/	.	8.e/L	.	8GG#/	.	8e/	.	8b/	8e\	.	16d/	.	8.e/L	.	8.ee\L	.
.	.	16e/	.	.	.	.	.	.	.	.	.	.	16e/	.	.	.	.	.
8E\J	.	16d/	.	.	.	8GG#/J	.	8E/J	.	8b/J	8e\J	.	16d/	.	.	.	.	.
.	.	16e/JJ	.	16g#/Jk	.	.	.	.	.	.	.	.	16e/JJ	.	16g#/Jk	.	16gg#\Jk	.
*	*	*	*	*	*	*	*	*	*	*	*	*	*Xtremolo	*	*	*	*	*
=12	=12	=12	=12	=12	=12	=12	=12	=12	=12	=12	=12	=12	=12	=12	=12	=12	=12	=12
8A\	.	8c#/ 8e	.	8a/	.	8C#/	.	8A/	.	8a/	8c#\	.	8d/	.	8a/	.	8aa\	.
4AA/	.	4c#/ 4e	.	4cc#\ 4aa	.	4C#/	.	4A/	.	4a/	4c#\	.	4cc#\	.	4aa\	.	4aaa\	.
=13||	=13||	=13||	=13||	=13||	=13||	=13||	=13||	=13||	=13||	=13||	=13||	=13||	=13||	=13||	=13||	=13||	=13||	=13||
*	*	*	*	*^	*	*	*	*	*	*	*	*	*	*	*	*	*	*
*	*	*	*	*	*cue	*	*	*	*	*	*	*	*	*	*	*	*	*	*
!	!LO:DY:rj:t=p..	!	!LO:DY:rj:t=p..	!LO:TX:a:t=Fl Solo	!	!LO:DY:rj:t=p.	!LO:TX:a:t=8.	!	!LO:TX:a:t=4.	!	!	!	!LO:DY:rj:t=pp.	!LO:TX:a:t=4.	!	!LO:TX:a:t=4.	!	!LO:TX:a:t=Solo	!
8AA/	p	8r	p	8rA	16.cc#/LL	p	4.r	.	4.r	.	8r	8ryy	pp	4.r	.	4.r	.	16.cc#\LL	.
.	.	.	.	.	32dd/K	.	.	.	.	.	.	.	.	.	.	.	.	32dd\K	.
8r	.	8c#/L 8e	.	8e\L 8cc#	16.ee/	.	.	.	.	.	8a/L	8c#\L	.	.	.	.	.	16.ee\	.
.	.	.	.	.	32ff#/K	.	.	.	.	.	.	.	.	.	.	.	.	32ff#\K	.
8r	.	8c#/J 8e	.	8e\J 8cc#	16.ee/	.	.	.	.	.	8a/J	8c#\J	.	.	.	.	.	16.ee\	.
.	.	.	.	.	32dd#X/JJk	.	.	.	.	.	.	.	.	.	.	.	.	32dd#X\JJk	.
=14	=14	=14	=14	=14	=14	=14	=14	=14	=14	=14	=14	=14	=14	=14	=14	=14	=14	=14	=14
*	*	*rep	*	*	*	*	*	*	*	*	*	*	*	*	*	*	*	*	*
8AA/	.	8r	.	8rc	16.ee/LL	.	4.r	.	4.r	.	8r	8ryy	.	4.r	.	4.r	.	16.ee\LL	.
.	.	.	.	.	32ff#/K	.	.	.	.	.	.	.	.	.	.	.	.	32ff#\K	.
8r	.	8c#/L 8e	.	8e\L 8cc#	16.gg#/	.	.	.	.	.	8a/L	8c#\L	.	.	.	.	.	16.gg#\	.
.	.	.	.	.	32aa/K	.	.	.	.	.	.	.	.	.	.	.	.	32aa\K	.
8r	.	8c#/J 8e	.	8e\J 8cc#	16.aa#X/	.	.	.	.	.	8a/J	8c#\J	.	.	.	.	.	16.aa#X\	.
.	.	.	.	.	32bb/JJk	.	.	.	.	.	.	.	.	.	.	.	.	32bb\JJk	.
*	*	*Xrep	*	*	*	*	*	*	*	*	*	*	*	*	*	*	*	*	*
=15	=15	=15	=15	=15	=15	=15	=15	=15	=15	=15	=15	=15	=15	=15	=15	=15	=15	=15	=15
*	*	*rep	*	*	*	*	*	*	*	*	*rep	*rep	*	*	*	*	*	*	*
8AA/	.	8r	.	8rA	16.cccn\LL	.	4.r	.	4.r	.	8r	8ryy	.	4.r	.	4.r	.	16.cccn\LL	.
.	.	.	.	.	32ccc#X\K	.	.	.	.	.	.	.	.	.	.	.	.	32ccc#X\K	.
8r	.	8c#/L 8e	.	8e\L 8cc#	16.ddd\	.	.	.	.	.	8a/L	8c#\L	.	.	.	.	.	16.ddd\	.
.	.	.	.	.	32ddd#X\K	.	.	.	.	.	.	.	.	.	.	.	.	32ddd#X\K	.
8r	.	8c#/J 8e	.	8e\J 8cc#	16.eee\	.	.	.	.	.	8a/J	8c#\J	.	.	.	.	.	16.eee\	.
.	.	.	.	.	32aaa\JJk	.	.	.	.	.	.	.	.	.	.	.	.	32fff#\JJk	.
*	*	*Xrep	*	*	*	*	*	*	*	*	*Xrep	*Xrep	*	*	*	*	*	*	*
!	!	!	!	!	!	!	!	!	!	!	!	!	!	!	!	!	!	!LO:LB:g=original	!
=16	=16	=16	=16	=16	=16	=16	=16	=16	=16	=16	=16	=16	=16	=16	=16	=16	=16	=16	=16
*	*	*rep	*	*	*	*	*	*	*	*	*rep	*rep	*	*	*	*	*	*	*
8AA/	.	8r	.	8rA	16.eee\LL	.	4.r	.	4.r	.	8r	8ryy	.	4.r	.	4.r	.	16.eee\LL	.
.	.	.	.	.	32ddd#X\JJk	.	.	.	.	.	.	.	.	.	.	.	.	32ddd#X\JJk	.
8r	.	8c#/L 8e	.	8e\L 8cc#	8eee\L	.	.	.	.	.	8a/L	8c#\L	.	.	.	.	.	8eee\L	.
8r	.	8c#/J 8e	.	8e\J 8cc#	8ccc#\J	.	.	.	.	.	8a/J	8c#\J	.	.	.	.	.	8ccc#\J	.
*	*	*Xrep	*	*	*	*	*	*	*	*	*Xrep	*Xrep	*	*	*	*	*	*	*
*	*	*	*	*v	*v	*	*	*	*	*	*	*	*	*	*	*	*	*	*
=17||	=17	=17||	=17	=17	=17	=17	=17	=17	=17	=17	=17	=17	=17	=17	=17	=17	=17	=17
!	!	!	!	!	!	!	!	!	!LO:DY:rj:t=p.	!	!	!	!	!	!	!	!LO:TX:a:t=4.	!
8E\	.	16d/LL	.	16.eee\LL	.	4.r	.	8E/	p	8r	8ryy	.	16.cc#\LL	.	16.ee\LL	.	4.r	.
.	.	16e/	.	.	.	.	.	.	.	.	.	.	.	.	.	.	.	.
.	.	.	.	32ddd\JJk	.	.	.	.	.	.	.	.	32b\JJk	.	32dd\JJk	.	.	.
8r	.	16B/	.	16.bb\LL	.	.	.	8r	.	8b/L	8e\L	.	8g#\L	.	8b\L	.	.	.
.	.	16e/	.	.	.	.	.	.	.	.	.	.	.	.	.	.	.	.
.	.	.	.	32ee\K	.	.	.	.	.	.	.	.	.	.	.	.	.	.
8r	.	16d/	.	(>16.gg#\	.	.	.	8r	.	8b/J	8e\J	.	8b\J	.	8dd\J	.	.	.
.	.	16e/JJ	.	.	.	.	.	.	.	.	.	.	.	.	.	.	.	.
.	.	.	.	32bb\JJk)	.	.	.	.	.	.	.	.	.	.	.	.	.	.
!	!	!	!	!LO:LB:g=original	!	!	!	!	!	!	!	!	!	!	!	!	!	!
=18	=18	=18	=18	=18	=18	=18	=18	=18	=18	=18	=18	=18	=18	=18	=18	=18	=18	=18
8AA/	.	16c#/LL	.	16.ddd\LL	.	4.r	.	8A/	.	8r	8ryy	.	16.b\LL	.	16.dd\LL	.	4.r	.
.	.	16e/	.	.	.	.	.	.	.	.	.	.	.	.	.	.	.	.
.	.	.	.	32ccc#\JJk	.	.	.	.	.	.	.	.	32a\JJk	.	32cc#\JJk	.	.	.
8r	.	16A/	.	8.aa^>\L	.	.	.	8r	.	8a/L	8c#\L	.	8e/L	.	8.a\L	.	.	.
.	.	16e/	.	.	.	.	.	.	.	.	.	.	.	.	.	.	.	.
8r	.	16c#/	.	.	.	.	.	8r	.	8a/J	8c#\J	.	8cc#/J	.	.	.	.	.
.	.	16e/JJ	.	16ee\Jk	.	.	.	.	.	.	.	.	.	.	16ee\Jk	.	.	.
=19	=19	=19	=19	=19	=19	=19	=19	=19	=19	=19	=19	=19	=19	=19	=19	=19	=19	=19
*	*	*tremolo	*	*	*	*	*	*	*	*	*	*	*	*	*	*	*	*
8E\	.	16d/LL	.	16.gg#\LL	.	4.r	.	8E/	.	8r	8ryy	.	16.dd\LL	.	16.ff#\LL	.	4.r	.
.	.	16e/	.	.	.	.	.	.	.	.	.	.	.	.	.	.	.	.
.	.	.	.	32ee\JJk	.	.	.	.	.	.	.	.	32cc#\JJk	.	32ee\JJk	.	.	.
8r	.	16d/	.	8.dd^>\L	.	.	.	8r	.	8b/L	8e\L	.	8.b\L	.	8.dd\L	.	.	.
.	.	16e/	.	.	.	.	.	.	.	.	.	.	.	.	.	.	.	.
8r	.	16d/	.	.	.	.	.	8r	.	8b/J	8e\J	.	.	.	.	.	.	.
.	.	16e/JJ	.	16b\Jk	.	.	.	.	.	.	.	.	16g#\Jk	.	16b\Jk	.	.	.
=20	=20	=20	=20	=20	=20	=20	=20	=20	=20	=20	=20	=20	=20	=20	=20	=20	=20	=20
8AA/	.	16c#/LL	.	16.a\LL	.	4.r	.	8A/	.	8r	8ryy	.	16.e/LL	.	16.a\LL	.	4.r	.
.	.	16e/	.	.	.	.	.	.	.	.	.	.	.	.	.	.	.	.
.	.	.	.	32cc#\JJk	.	.	.	.	.	.	.	.	32a/JJk	.	32cc#\JJk	.	.	.
8r	.	16c#/	.	8ee\L	.	.	.	8r	.	8a/L	8c#\L	.	8cc#\L	.	8ee\L	.	.	.
.	.	16e/	.	.	.	.	.	.	.	.	.	.	.	.	.	.	.	.
8r	.	16c#/	.	8aa\J	.	.	.	8r	.	8a/J	8c#\J	.	8cc#\J	.	8aa\J	.	.	.
.	.	16e/JJ	.	.	.	.	.	.	.	.	.	.	.	.	.	.	.	.
*	*	*Xtremolo	*	*	*	*	*	*	*	*	*	*	*	*	*	*	*	*
!	!	!	!	!	!	!	!	!	!	!LO:LB:g=original	!LO:LB:g=original	!	!	!	!	!	!	!
=21	=21	=21	=21	=21	=21	=21	=21	=21	=21	=21	=21	=21	=21	=21	=21	=21	=21	=21
!	!LO:DY:rj:t=f..	!	!LO:DY:rj	!	!LO:DY:rj	!	!LO:DY:rj:t=f..	!	!LO:DY:rj:t=f..	!	!	!LO:DY:rj:t=f.	!	!LO:DY:rj:t=f..	!	!LO:DY:rj:t=f..	!	!
8E\L	f	16d/LL	ff	16.eee\LL	ff	8GG#t>/L	f	8E/L	f	8b/L	8e\L	f	16.cc#\LL	f	16.ee\LL	f	16.eee\LL	.
.	.	16e/	.	.	.	.	.	.	.	.	.	.	.	.	.	.	.	.
.	.	.	.	32ddd\JJk	.	.	.	.	.	.	.	.	32b\JJk	.	32dd\JJk	.	32ddd\JJk	.
8G#\	.	16B/	.	16.bb\LL	.	8GG#/J	.	8e/	.	8b/	8e\	.	8g#\L	.	8b\L	.	16.bb\LL	.
.	.	16e/	.	.	.	.	.	.	.	.	.	.	.	.	.	.	.	.
.	.	.	.	32ee\K	.	.	.	.	.	.	.	.	.	.	.	.	(>32ee\K	.
8E\J	.	16d/	.	(>16.gg#\	.	8r	.	8E/J	.	8b/J	8e\J	.	16a\L	.	16cc#\L	.	16gg#\	.
.	.	16e/JJ	.	.	.	.	.	.	.	.	.	.	16b\JJ	.	16dd\JJ	.	16bb\JJ)	.
.	.	.	.	32bb\JJk)	.	.	.	.	.	.	.	.	.	.	.	.	.	.
!	!	!LO:LB:g=original	!	!	!	!	!	!LO:LB:g=original	!	!	!	!	!LO:LB:g=original	!	!	!	!	!
=22	=22	=22	=22	=22	=22	=22	=22	=22	=22	=22	=22	=22	=22	=22	=22	=22	=22	=22
8AA/L	.	16c#/LL	.	16.ddd\LL	.	8C#/L	.	8A/L	.	8a/L	8c#\L	.	16.b\LL	.	16.dd\LL	.	16.ddd\LL	.
.	.	16e/	.	.	.	.	.	.	.	.	.	.	.	.	.	.	.	.
.	.	.	.	32ccc#\JJk	.	.	.	.	.	.	.	.	32a\JJk	.	32cc#\JJk	.	32ccc#\JJk	.
8C#/	.	16A/	.	8.aa\L	.	8C#/J	.	8c#/	.	8a/	8c#\	.	8e/L	.	8.a\L	.	8.aa\L	.
.	.	16e/	.	.	.	.	.	.	.	.	.	.	.	.	.	.	.	.
8AA/J	.	16c#/	.	.	.	8r	.	8A/J	.	8a/J	8c#\J	.	8cc#/J	.	.	.	.	.
.	.	16e/JJ	.	16ee\Jk	.	.	.	.	.	.	.	.	.	.	16ee\Jk	.	16ee\Jk	.
!LO:LB:g=original	!	!	!	!	!	!	!	!	!	!	!	!	!	!	!	!	!	!
=23	=23	=23	=23	=23	=23	=23	=23	=23	=23	=23	=23	=23	=23	=23	=23	=23	=23	=23
*	*	*tremolo	*	*	*	*	*	*	*	*	*	*	*	*	*	*	*	*
8E\L	.	16d/LL	.	16.ff#\LL	.	8GG#t>/L	.	8E/L	.	8b/L	8e\L	.	16.dd\LL	.	16.ff#\LL	.	16.ff#\LL	.
.	.	16e/	.	.	.	.	.	.	.	.	.	.	.	.	.	.	.	.
.	.	.	.	32ee\JJk	.	.	.	.	.	.	.	.	32cc#\JJk	.	32ee\JJk	.	32ee\JJk	.
8G#\	.	16d/	.	8.dd\L	.	16GG#/L	.	8e/	.	8b/	8e\	.	8b\L	.	8.dd\L	.	8.ddd\L	.
.	.	16e/	.	.	.	16GG#/J	.	.	.	.	.	.	.	.	.	.	.	.
8E\J	.	16d/	.	.	.	8GG#/J	.	8E/J	.	8b/J	8e\J	.	8b\J	.	.	.	.	.
.	.	16e/JJ	.	16g#\Jk	.	.	.	.	.	.	.	.	.	.	16gg#X\Jk	.	16gg#\Jk	.
*	*	*Xtremolo	*	*	*	*	*	*	*	*	*	*	*	*	*	*	*	*
!	!	!	!	!	!	!	!	!	!	!	!	!	!	!	!LO:DY:rj	!	!	!
=24	=24	=24	=24	=24	=24	=24	=24	=24	=24	=24	=24	=24	=24	=24	=24	=24	=24	=24
8AA/	.	8c#/ 8e	.	8a/	.	8C#/	.	8A/	.	8a/	8c#\	.	8cc#\	.	8aa\	.	8aa\	.
4AA\ 4A	.	4c#/ 4e	.	4cc#\ 4aa	.	4C#/	.	4A/	.	4a/	4c#\	.	4cc#\	.	4aa\	.	4aaa\	.
!	!	!	!	!	!	!LO:LB:g=original	!	!	!	!	!	!	!	!	!	!	!	!
*	*	*	*	*	*	*	*	*	*	*v	*v	*	*	*	*	*	*	*
=25||	=25||	=25||	=25||	=25||	=25||	=25||	=25||	=25||	=25||	=25||	=25||	=25||	=25||	=25||	=25||	=25||	=25||
*k[]	*	*k[]	*	*k[]	*	*k[]	*	*k[]	*	*k[]	*	*k[]	*	*k[]	*	*k[]	*
*	*	*	*	*^	*	*	*	*	*	*	*	*	*	*	*	*	*
!	!	!	!	!	!	!	!LO:TX:t=P:problem=brak oznaczonej zmiany znaków chromatycznych	!	!LO:TX:t=P:problem=brak oznaczonej zmiany znaków chromatycznych	!	!LO:TX:t=P:problem=brak oznaczonej zmiany znaków chromatycznych	!	!	!	!	!	!LO:TX:t=P:problem=brak oznaczonej zmiany znaków chromatycznych	!
!	!	!	!	!LO:TX:b:t=Minore	!	!	!	!	!	!	!	!	!LO:TX:b:t=8.	!	!LO:TX:a:t=Minore	!	!LO:TX:a:t=Minore	!
!LO:TX:a:t=Minore	!LO:DY:rj:t=p.	!LO:TX:a:t=Minore	!LO:DY:rj:t=p.	!LO:TX:a:t=Clarinet Solo	!	!	!LO:TX:a:t=8.	!	!LO:TX:a:t=8.	!	!LO:TX:a:t=8.	!	!LO:TX:a:t=Minore	!	!LO:TX:a:t=Solo:rj	!LO:DY:rj:t=p.	!LO:TX:a:t=8.	!
8AA/	p	8r	p	8rA	16a/LL	.	4.r	.	4.r	.	4.r	.	4.r	.	16a\LL	p	4.r	.
.	.	.	.	.	16cc#X/JJ	.	.	.	.	.	.	.	.	.	16ccn\JJ	.	.	.
8r	.	8cn/L 8e/	.	8e\L 8ccn	8.ee/L	.	.	.	.	.	.	.	.	.	8.ee\L	.	.	.
8r	.	8c/J 8e/	.	8e\J 8cc	.	.	.	.	.	.	.	.	.	.	.	.	.	.
.	.	.	.	.	16dd#X/Jk	.	.	.	.	.	.	.	.	.	16dd#X\Jk	.	.	.
=26	=26	=26	=26	=26	=26	=26	=26	=26	=26	=26	=26	=26	=26	=26	=26	=26	=26	=26
*	*	*rep	*	*	*	*	*	*	*	*	*	*	*	*	*	*	*	*
8AA/	.	8r	.	8rc	16.ee/LL	.	4.r	.	4.r	.	4.r	.	4.r	.	16.ee\LL	.	4.r	.
.	.	.	.	.	32dd#X/JJk	.	.	.	.	.	.	.	.	.	32dd#X\JJk	.	.	.
8r	.	8cn/L 8e	.	8e\L 8cc	8ee/L	.	.	.	.	.	.	.	.	.	8ee\L	.	.	.
8r	.	8c/J 8e	.	8e\J 8cc	8aa/J	.	.	.	.	.	.	.	.	.	8aa^>\J	.	.	.
*	*	*Xrep	*	*	*	*	*	*	*	*	*	*	*	*	*	*	*	*
!	!	!	!	!LO:LB:g=original	!LO:LB:g=original	!	!	!	!	!	!	!	!	!	!	!	!	!
=27	=27	=27	=27	=27	=27	=27	=27	=27	=27	=27	=27	=27	=27	=27	=27	=27	=27	=27
*	*	*rep	*	*	*	*	*	*	*	*	*	*	*	*	*	*	*	*
8AA/	.	8r	.	8rc	16.ccc/LL	.	4.r	.	4.r	.	4.r	.	4.r	.	16.ccc\LL	.	4.r	.
.	.	.	.	.	32bb/JJk	.	.	.	.	.	.	.	.	.	32bb\JJk	.	.	.
8r	.	8cn/L 8e	.	8e\L 8cc	8aa/L	.	.	.	.	.	.	.	.	.	8aa\L	.	.	.
8r	.	8c/J 8e	.	8e\J 8cc	8ccc/J	.	.	.	.	.	.	.	.	.	8ccc\J	.	.	.
*	*	*Xrep	*	*	*	*	*	*	*	*	*	*	*	*	*	*	*	*
=28	=28	=28	=28	=28	=28	=28	=28	=28	=28	=28	=28	=28	=28	=28	=28	=28	=28	=28
*	*	*rep	*	*	*	*	*	*	*	*	*	*	*	*	*	*	*	*
8AA/	.	8r	.	8rc	8eee/	.	4.r	.	4.r	.	4.r	.	4.r	.	8eee\	.	4.r	.
8r	.	8cn/L 8e	.	8e\L 8cc	4aa/^<	.	.	.	.	.	.	.	.	.	4aa^>\	.	.	.
8r	.	8c/J 8e	.	8e\J 8cc	.	.	.	.	.	.	.	.	.	.	.	.	.	.
*	*	*Xrep	*	*	*	*	*	*	*	*	*	*	*	*	*	*	*	*
=29	=29	=29	=29	=29	=29	=29	=29	=29	=29	=29	=29	=29	=29	=29	=29	=29	=29	=29
8E\	.	8r	.	8rc	8bb/	.	4.r	.	4.r	.	4.r	.	4.r	.	8bb\	.	4.r	.
8r	.	8B/L 8e/	.	8e\L 8dd	4ee/	.	.	.	.	.	.	.	.	.	4ee^>\	.	.	.
8r	.	8B/J 8e/	.	8e^>\J 8dd	.	.	.	.	.	.	.	.	.	.	.	.	.	.
=30	=30	=30	=30	=30	=30	=30	=30	=30	=30	=30	=30	=30	=30	=30	=30	=30	=30	=30
8AA/	.	8r	.	8rc	8aa/	.	4.r	.	4.r	.	4.r	.	4.r	.	8aa\	.	4.r	.
8r	.	8c/L 8e/	.	8e\L 8cc	4cc/^>	.	.	.	.	.	.	.	.	.	4cc^>\	.	.	.
8r	.	8c/J 8e/	.	8e\J 8cc	.	.	.	.	.	.	.	.	.	.	.	.	.	.
=31	=31	=31	=31	=31	=31	=31	=31	=31	=31	=31	=31	=31	=31	=31	=31	=31	=31	=31
8E\	.	8r	.	8rA	16.b/LL	.	4.r	.	4.r	.	4.r	.	4.r	.	16.b\LL	.	4.r	.
.	.	.	.	.	32ff/JJk	.	.	.	.	.	.	.	.	.	32ff\JJk	.	.	.
8r	.	8d/L 8e/	.	8e\L 8dd	8.ee/L	.	.	.	.	.	.	.	.	.	8.ee\L	.	.	.
8r	.	8d/J 8e/	.	8e\J 8dd	.	.	.	.	.	.	.	.	.	.	.	.	.	.
.	.	.	.	.	16dd/Jk	.	.	.	.	.	.	.	.	.	16dd\Jk	.	.	.
=32	=32	=32	=32	=32	=32	=32	=32	=32	=32	=32	=32	=32	=32	=32	=32	=32	=32	=32
8AA/	.	8r	.	8rA	16.cc/LL	.	4.r	.	4.r	.	4.r	.	4.r	.	16.cc\LL	.	4.r	.
.	.	.	.	.	32ee/JJk	.	.	.	.	.	.	.	.	.	32ee\JJk	.	.	.
8r	.	8c/L 8e/	.	8e\L 8cc	8aa/L	.	.	.	.	.	.	.	.	.	8aa\L	.	.	.
8r	.	8c/J 8e/	.	8e\J 8cc	8ccc/J	.	.	.	.	.	.	.	.	.	8ccc\J	.	.	.
!	!	!LO:LB:g=original	!	!	!	!	!	!	!	!	!	!	!	!	!	!	!	!
*	*	*	*	*v	*v	*	*	*	*	*	*	*	*	*	*	*	*	*
=33	=33	=33	=33	=33	=33	=33	=33	=33	=33	=33	=33	=33	=33	=33	=33	=33	=33
*	*	*	*	*	*	*	*	*	*	*^	*	*	*	*	*	*	*
*	*	*tremolo	*	*	*	*	*	*	*	*	*	*	*tremolo	*	*	*	*	*
!	!LO:DY:rj:t=f.	!LO:TX:b:t=|:problem	!	!	!LO:DY:rj:t=f.	!	!LO:DY:rj:t=f.	!	!LO:DY:rj:t=f..	!	!	!LO:DY:rj:t=f.	!	!LO:DY:rj:t=f.	!	!LO:DY:rj:t=f.	!	!
8E\L	f	8B/ 8e/L	.	16.ee\LL	f	8GGTT>/L	f	8E/L	f	8b/L	8e\L	f	16d/LL	f	16.ee\LL	f	16.ee\LL	.
.	.	.	.	.	.	.	.	.	.	.	.	.	16e/	.	.	.	.	.
.	.	.	.	32gg#X\JJk	.	.	.	.	.	.	.	.	.	.	32gg#X\JJk	.	32gg#X\JJk	.
8G#X\	.	8B/ 8e	.	8bb\L	.	8GGTTT>/	.	8e/	.	8b/	8e\	.	16d/	.	8bb\L	.	8bb\L	.
.	.	.	.	.	.	.	.	.	.	.	.	.	16e/	.	.	.	.	.
8E\J	.	8B/ 8eJ	.	8eee^>\J	.	8GGTTT>/J	.	8E/J	.	8b/J	8e\J	.	16d/	.	8eee\J	.	8eee^>\J	.
.	.	.	.	.	.	.	.	.	.	.	.	.	16e/JJ	.	.	.	.	.
!	!	!	!	!	!	!	!	!	!	!	!	!	!	!	!LO:LB:g=original	!	!	!
=34	=34	=34	=34	=34	=34	=34	=34	=34	=34	=34	=34	=34	=34	=34	=34	=34	=34	=34
!!mixed beam:problem
!LO:TX:a:t=P:problem=mixed beam	!	!LO:TX:b:t=|:problem	!	!	!	!	!	!	!	!	!	!	!	!	!	!	!	!
8AA/L	.	8c/ 8e/L	.	16.a\LL	.	8CTT>/L	.	8r	.	8a/L	8A\L	.	16c/LL	.	16.a\LL	.	16.aa\LL	.
.	.	.	.	.	.	.	.	.	.	.	.	.	16e/	.	.	.	.	.
.	.	.	.	32cc\JJk	.	.	.	.	.	.	.	.	.	.	32cc\JJk	.	32cccn\JJk	.
8A\	.	8c/ 8e	.	8ee\L	.	8CTTT>/	.	8A/L	.	8a/	8A\	.	16c/	.	8ee\L	.	8eee\L	.
.	.	.	.	.	.	.	.	.	.	.	.	.	16e/	.	.	.	.	.
8AA/J	.	8c/ 8eJ	.	8aa\J	.	8CTTT>/J	.	8A/J	.	8a/J	8A\J	.	16c/	.	8aa\J	.	8aaa\J	.
.	.	.	.	.	.	.	.	.	.	.	.	.	16e/JJ	.	.	.	.	.
!LO:LB:g=original	!	!	!	!	!	!	!	!	!	!	!	!	!	!	!	!	!LO:LB:g=original	!
=35	=35	=35	=35	=35	=35	=35	=35	=35	=35	=35	=35	=35	=35	=35	=35	=35	=35	=35
!	!	!LO:TX:b:t=|:problem	!	!	!	!	!	!	!	!	!	!	!	!	!	!	!	!
8E\L	.	8d/ 8e/L	.	16.gg#X\LL	.	8GGTT>/L	.	8E/L	.	8b/L	8e\L	.	16d/LL	.	16.gg#X\LL	.	16.ggg#X\LL	.
.	.	.	.	.	.	.	.	.	.	.	.	.	16e/	.	.	.	.	.
.	.	.	.	32ee\JJk	.	.	.	.	.	.	.	.	.	.	32ee\JJk	.	32eee\JJk	.
8G#X\	.	8d/ 8e	.	8ff#X\L	.	8GGTTT>/	.	8e/	.	8b/	8e\	.	16d/	.	8ff#X\L	.	8fff#X\L	.
.	.	.	.	.	.	.	.	.	.	.	.	.	16e/	.	.	.	.	.
8E\J	.	8d/ 8eJ	.	8gg#X\J	.	8GGTTT>/J	.	8E/J	.	8b/J	8e\J	.	16d/	.	8gg#X\J	.	8ggg#X\J	.
.	.	.	.	.	.	.	.	.	.	.	.	.	16e/JJ	.	.	.	.	.
*	*	*Xtremolo	*	*	*	*	*	*	*	*	*	*	*Xtremolo	*	*	*	*	*
=36	=36	=36	=36	=36	=36	=36	=36	=36	=36	=36	=36	=36	=36	=36	=36	=36	=36	=36
8A\	.	8c/ 8e/	.	8aa\	.	8C/	.	8A/	.	8a/	8A\	.	8e/	.	8aa\	.	8aaa\	.
4AA/	.	4c/ 4e/	.	4aa\	.	4C/	.	4A/	.	4a/	4A\	.	4e/	.	4aa\	.	4aaa\	.
*	*	*	*	*	*	*	*	*	*	*v	*v	*	*	*	*	*	*	*
!	!	!	!	!LO:LB:g=original	!	!	!	!	!	!	!	!	!	!	!	!	!
=37||	=37	=37||	=37	=37	=37	=37	=37	=37	=37	=37	=37	=37	=37	=37	=37	=37	=37
*k[f#c#g#]	*	*k[f#c#g#]	*	*k[f#c#g#]	*	*k[f#c#g#]	*	*k[f#c#g#]	*	*k[f#c#g#]	*	*k[f#c#g#]	*	*k[f#c#g#]	*	*k[f#c#g#]	*
*	*	*	*	*	*	*	*	*	*	*^	*	*	*	*	*	*	*
!	!	!	!	!	!	!LO:TX:t=P:problem=brak oznaczonej zmiany znaków chromatycznych	!	!LO:TX:t=P:problem=brak oznaczonej zmiany znaków chromatycznych	!	!	!LO:TX:t=P:problem=brak oznaczonej zmiany znaków chromatycznych	!LO:DY:rj:t=p.	!LO:TX:b:t=4.	!	!LO:TX:b:t=4.	!	!LO:TX:b:t=Majore	!
!LO:TX:a:t=Majore	!LO:DY:rj:t=p..	!LO:TX:b:t=Majore	!LO:DY:a:rj:t=p.	!LO:TX:a:t=Majore	!LO:DY:b:rj:t=p.	!LO:TX:a:t=4.	!	!LO:TX:b:t=4.	!	!	!	!	!LO:TX:a:t=Majore	!	!LO:TX:a:t=Majore	!	!LO:TX:a:t=Solo	!
8AA/	p	8A/L	p	16.c#/LL	p	4.r	.	4.r	.	8r	8ryy	p	4.r	.	4.r	.	16.cc#\LL	.
.	.	.	.	32e/JJk	.	.	.	.	.	.	.	.	.	.	.	.	32ee\JJk	.
8r	.	8c#/ 8e/	.	8a/L	.	.	.	.	.	8a/L	8c#\L	.	.	.	.	.	8aa\L	.
8r	.	8c#/J 8e/	.	8cc#/J	.	.	.	.	.	8a/J	8c#\J	.	.	.	.	.	8ccc#\J	.
=38	=38	=38	=38	=38	=38	=38	=38	=38	=38	=38	=38	=38	=38	=38	=38	=38	=38	=38
*	*	*rep	*	*	*	*	*	*	*	*rep	*rep	*	*	*	*	*	*	*
8AA/	.	8A/L	.	4ee\	.	4.r	.	4.r	.	8r	8ryy	.	4.r	.	4.r	.	4eee\	.
8r	.	8c#/ 8e/	.	.	.	.	.	.	.	8a/L	8c#\L	.	.	.	.	.	.	.
8r	.	8c#/J 8e/	.	8ff#\	.	.	.	.	.	8a/J	8c#\J	.	.	.	.	.	8fff#\	.
*	*	*Xrep	*	*	*	*	*	*	*	*Xrep	*Xrep	*	*	*	*	*	*	*
!	!	!	!	!	!	!	!	!	!	!LO:LB:g=original	!LO:LB:g=original	!	!	!	!	!	!	!
=39	=39	=39	=39	=39	=39	=39	=39	=39	=39	=39	=39	=39	=39	=39	=39	=39	=39	=39
*	*	*tremolo	*	*	*	*	*	*	*	*	*	*	*	*	*	*	*	*
8E\	.	8B'</ 8e'</L	.	16.ee\LL	.	4.r	.	4.r	.	8r	8ryy	.	4.r	.	4.r	.	16.eee\LL	.
.	.	.	.	32dd\JJk	.	.	.	.	.	.	.	.	.	.	.	.	32ddd\JJk	.
8r	.	8B'</ 8e'</	.	8b\L	.	.	.	.	.	8b/L	8e\L	.	.	.	.	.	8bb\L	.
8r	.	8B'</ 8e'<J/	.	8ff#\J	.	.	.	.	.	8b/J	8e\J	.	.	.	.	.	8fff#\J	.
*	*	*Xtremolo	*	*	*	*	*	*	*	*	*	*	*	*	*	*	*	*
=40	=40	=40	=40	=40	=40	=40	=40	=40	=40	=40	=40	=40	=40	=40	=40	=40	=40	=40
8AA/	.	8A/L	.	4ee\	.	4.r	.	4.r	.	8r	8ryy	.	4.r	.	4.r	.	4eee\	.
8r	.	8c#/ 8e/	.	.	.	.	.	.	.	8a/L	8c#\L	.	.	.	.	.	.	.
8r	.	8c#/J 8e/	.	8cc#\	.	.	.	.	.	8a/J	8c#\J	.	.	.	.	.	8ccc#\	.
=41	=41	=41	=41	=41	=41	=41	=41	=41	=41	=41	=41	=41	=41	=41	=41	=41	=41	=41
*	*	*tremolo	*	*	*	*	*	*	*	*	*	*	*	*	*	*	*	*
!	!LO:DY:rj:t=f..	!	!LO:DY:rj:t=f.	!	!LO:DY:rj:t=f..	!	!LO:DY:rj:t=f.	!	!	!	!	!	!	!LO:DY:rj:t=f..	!	!LO:DY:rj:t=f..	!	!LO:DY:rj:t=f.
8E\L	f	8B'</ 8e'</L	f	16.dd\LL	f	8GG#/L	f	8E/L	.	8b/L	8e\L	.	16.b\LL	f	16.dd\LL	f	16.ddd\LL	f
.	.	.	.	32cc#\JJk	.	.	.	.	.	.	.	.	32a\JJk	.	32cc#\JJk	.	32ccc#\JJk	.
8G#X\	.	8B'</ 8e'</	.	8b\L	.	8GG#/J	.	8e/	.	8b/	8e\	.	8g#/L	.	8b\L	.	8bb\L	.
8E\J	.	8B'</ 8e'</J	.	8ee\J	.	8r	.	8E/J	.	8b/J	8e\J	.	8g#/J	.	8ee\J	.	8eee\J	.
*	*	*Xtremolo	*	*	*	*	*	*	*	*	*	*	*	*	*	*	*	*
!	!	!	!	!	!	!	!	!	!	!	!	!	!LO:LB:g=original	!	!	!	!	!
=42	=42	=42	=42	=42	=42	=42	=42	=42	=42	=42	=42	=42	=42	=42	=42	=42	=42	=42
!!mixed beam:problem
!LO:TX:a:t=P:problem=mixed beam	!	!	!	!	!	!	!	!	!	!	!	!	!	!	!	!	!	!
8AA/L	.	8A/L	.	16.cc#\LL	.	8C#/L	.	8A/	.	8r	8ryy	.	8a/L	.	16.cc#\LL	.	16.ccc#\LL	.
.	.	.	.	32b\JJk	.	.	.	.	.	.	.	.	.	.	32b\JJk	.	32bb\JJk	.
8A\	.	8c#/ 8e/	.	8a\L	.	8C#/J	.	8r	.	8a/L	8c#\L	.	8a/	.	8a\L	.	8aa\L	.
8AA/J	.	8c#/J 8e/	.	8ee\J	.	8r	.	8r	.	8a/J	8c#\J	.	8cc#/J	.	8ee\J	.	8eee\J	.
!	!	!	!	!	!	!	!	!LO:LB:g=original	!	!	!	!	!	!	!	!	!LO:DY:rj	!
=43	=43	=43	=43	=43	=43	=43	=43	=43	=43	=43	=43	=43	=43	=43	=43	=43	=43	=43
*	*	*tremolo	*	*	*	*	*	*	*	*	*	*	*	*	*	*	*	*
8E\	.	8d'</ 8e'</L	.	16.b\LL	.	8GG#/L	.	8E/	.	8r	8ryy	.	8g#/L	.	16.b\LL	.	16.bb\LL	.
.	.	.	.	32a\JJk	.	.	.	.	.	.	.	.	.	.	32a\JJk	.	32aa\JJk	.
8r	.	8d'</ 8e'</	.	8g#\L	.	8GG#/J	.	8r	.	8b/L	8e\L	.	8g#/	.	8g#\L	.	8gg#\L	.
8r	.	8d'</ 8e'</J	.	8ee\J	.	8r	.	8r	.	8b/J	8e\J	.	8b/J	.	8ee\J	.	8eee\J	.
*	*	*Xtremolo	*	*	*	*	*	*	*	*	*	*	*	*	*	*	*	*
!	!	!LO:LB:g=original	!	!	!	!	!	!	!	!	!	!	!	!	!	!	!	!
=44	=44	=44	=44	=44	=44	=44	=44	=44	=44	=44	=44	=44	=44	=44	=44	=44	=44	=44
*	*	*tremolo	*	*	*	*	*	*	*	*	*	*	*	*	*	*	*	*
!!mixed beam:problem
!LO:TX:a:t=P:problem=mixed beam	!	!	!	!	!	!	!	!	!	!	!	!	!	!	!	!	!	!
8AA/L	.	16c#/LL	.	16a\LL	.	8C#/	.	8A/	.	8a/L	8c#\L	.	8a/L	.	16a\LL	.	16aa\LL	.
.	.	16e/	.	16cc#\	.	.	.	.	.	.	.	.	.	.	16cc#\JJ	.	16ccc#\	.
8A\	.	16c#/	.	16ee\	.	8r	.	8r	.	8a/	8c#\	.	8a/	.	8ee\L	.	16eee\	.
.	.	16e/	.	16aa\J	.	.	.	.	.	.	.	.	.	.	.	.	16aa\J	.
8AA/J	.	16c#/	.	8ccc#\J	.	8r	.	8r	.	8a/J	8c#\J	.	8a/J	.	8cc#\J	.	8ccc#\J	.
.	.	16e/JJ	.	.	.	.	.	.	.	.	.	.	.	.	.	.	.	.
*	*	*Xtremolo	*	*	*	*	*	*	*	*	*	*	*	*	*	*	*	*
!LO:LB:g=original	!	!	!	!LO:LB:g=original	!	!	!	!	!	!	!	!	!	!	!	!	!	!
=45	=45	=45	=45	=45	=45	=45	=45	=45	=45	=45	=45	=45	=45	=45	=45	=45	=45	=45
8E\L	.	16d/LL	.	16eee\LL	.	8GG#t>/L	.	8E/L	.	8b/L	8e\L	.	16.cc#\LL	.	16.ee\LL	.	16.eee\LL	.
.	.	16e/	.	16ddd\	.	.	.	.	.	.	.	.	.	.	.	.	.	.
.	.	.	.	.	.	.	.	.	.	.	.	.	32b\JJk	.	32dd\JJk	.	32ddd\K	.
8G#\	.	16B/	.	16bb\	.	8GG#/	.	8e/	.	8b/	8e\	.	8g#\L	.	8b\L	.	16bb\	.
.	.	16e/	.	16gg#\	.	.	.	.	.	.	.	.	.	.	.	.	16gg#\	.
8E\J	.	16d/	.	16ee\	.	8GG#/J	.	8E/J	.	8b/J	8e\J	.	16cc#\L	.	16ee\L	.	16eee\	.
.	.	16e/JJ	.	16dd\JJ	.	.	.	.	.	.	.	.	16b\JJ	.	16dd\JJ	.	16ddd\JJ	.
=46	=46	=46	=46	=46	=46	=46	=46	=46	=46	=46	=46	=46	=46	=46	=46	=46	=46	=46
8AA/	.	16A/LL	.	16.cc#\LL	.	8C#/	.	8A/	.	8r	8ryy	.	8a\L	.	16.cc#\LL	.	16.ccc#\LL	.
.	.	16e/	.	.	.	.	.	.	.	.	.	.	.	.	.	.	.	.
.	.	.	.	32a\JJk	.	.	.	.	.	.	.	.	.	.	32a\JJk	.	32aa\JJk	.
8r	.	16c#/	.	8.ff#\L	.	8r	.	8r	.	8a/L	8c#\L	.	8.dd\	.	8.ff#\L	.	8.fff#\L	.
.	.	16e/	.	.	.	.	.	.	.	.	.	.	.	.	.	.	.	.
8r	.	16c#/	.	.	.	8r	.	8r	.	8a/J	8c#\J	.	.	.	.	.	.	.
.	.	16e/JJ	.	16ee\Jk	.	.	.	.	.	.	.	.	16cc#\Jk	.	16ee\Jk	.	16ccc#\Jk	.
!	!	!	!	!	!	!LO:LB:g=original	!	!	!	!	!	!	!	!	!LO:LB:g=original	!	!	!
=47	=47	=47	=47	=47	=47	=47	=47	=47	=47	=47	=47	=47	=47	=47	=47	=47	=47	=47
8E\	.	16d/LL	.	16.b\LL	.	8GG#/L	.	8E/	.	8r	8ryy	.	8g#/L	.	16.b\LL	.	16.bb\LL	.
.	.	16e/	.	.	.	.	.	.	.	.	.	.	.	.	.	.	.	.
.	.	.	.	32g#\JJk	.	.	.	.	.	.	.	.	.	.	32g#\JJk	.	32gg#\JJk	.
8r	.	16B/	.	8.ff#\L	.	8GG#/J	.	8r	.	8b/L	8e\L	.	8.b/	.	8.ff#\L	.	8.fff#\L	.
.	.	16e/	.	.	.	.	.	.	.	.	.	.	.	.	.	.	.	.
8r	.	16d/	.	.	.	8r	.	8r	.	8b/J	8e\J	.	.	.	.	.	.	.
.	.	16e/JJ	.	16ee\Jk	.	.	.	.	.	.	.	.	16g#/Jk	.	16ee\Jk	.	16eee\Jk	.
=48	=48	=48	=48	=48	=48	=48	=48	=48	=48	=48	=48	=48	=48	=48	=48	=48	=48	=48
8A\	.	8c#/ 8e/	.	8a/	.	8C#/	.	8A/	.	8a/	8c#\	.	8a/	.	8a/	.	8aa\	.
4AA/	.	4c#/ 4e/	.	4cc#\ 4aa	.	4C#/	.	4A/	.	4a/	4c#\	.	4cc#\	.	4aa\	.	4aaa\	.
*	*	*	*	*	*	*	*	*	*	*v	*v	*	*	*	*	*	*	*
==	==	==	==	==	==	==	==	==	==	==	==	==	==	==	==	==	==
*-	*-	*-	*-	*-	*-	*-	*-	*-	*-	*-	*-	*-	*-	*-	*-	*-	*-
!!!system-decoration: [(g1)],[(g2)],[(g3)]
!!!RDF**kern: > = above
!!!RDF**kern: < = below
!!!ENC: Berenika Jozajtis
!!!END: 2020-07-21
!!!EED: Jędrzej Mróz
!!!ESR: 2021-10-29
